src/public/icons/telegram.svg

<svg viewBox="0 0 30 30" fill="none"
  xmlns="http://www.w3.org/2000/svg">
  <path d="M5.93555 13.4648C9.49023 11.9062 13.2363 10.293 17.1738 8.625C19.8809 7.51758 21.665 6.80664 22.5264 6.49219C23.4014 6.16406 24.0098 6 24.3516 6C24.707 6 24.96 6.0752 25.1104 6.22559C25.2334 6.34863 25.3223 6.51953 25.377 6.73828C25.3906 6.82031 25.3975 6.99805 25.3975 7.27148V7.49707C25.2607 8.94629 24.9463 11.1543 24.4541 14.1211C23.9756 17.0879 23.5518 19.4873 23.1826 21.3193C23.0732 22.0029 22.9023 22.502 22.6699 22.8164C22.4375 23.1172 22.1777 23.2812 21.8906 23.3086C21.8086 23.3223 21.7334 23.3291 21.665 23.3291C21.3506 23.3291 21.0293 23.2539 20.7012 23.1035C20.3867 22.9395 19.9629 22.666 19.4297 22.2832L18.8145 21.8525C18.2676 21.4971 17.5703 21.0322 16.7227 20.458C16.0664 20.0068 15.3281 19.5146 14.5078 18.9814C13.8652 18.5439 13.5439 18.1338 13.5439 17.751C13.5439 17.5459 13.626 17.3408 13.79 17.1357C13.9541 16.917 14.207 16.6436 14.5488 16.3154L14.9385 15.9463C15.5674 15.3584 16.5928 14.3877 18.0146 13.0342C19.4502 11.6807 20.1953 10.9287 20.25 10.7783V10.6348C20.25 10.5527 20.2158 10.4775 20.1475 10.4092C20.1064 10.3682 20.0518 10.3477 19.9834 10.3477C19.915 10.3477 19.8398 10.3613 19.7578 10.3887C19.6621 10.416 16.9619 12.2002 11.6572 15.7412C10.8643 16.2471 10.208 16.5 9.68848 16.5C9.11426 16.5 8.08203 16.2607 6.5918 15.7822C6.31836 15.6865 6.14062 15.6318 6.05859 15.6182C5.4707 15.4268 5.06055 15.2627 4.82812 15.126C4.60938 14.9893 4.5 14.8115 4.5 14.5928C4.5 14.5654 4.5 14.5381 4.5 14.5107C4.54102 14.3467 4.68457 14.1758 4.93066 13.998C5.17676 13.8066 5.51172 13.6289 5.93555 13.4648Z" fill="#706b6d"/>
</svg>

<svg xmlns="http://www.w3.org/2000/svg" fill="none" viewBox="0 0 30 30"><path fill="#706b6d" d="M5.936 13.465q5.331-2.338 11.238-4.84 4.06-1.66 5.352-2.133Q23.84 6 24.352 6q.533 0 .758.226.184.185.267.512.02.123.02.533v.226q-.204 2.174-.943 6.624-.717 4.45-1.271 7.198-.164 1.026-.513 1.497-.349.451-.78.493-.122.02-.225.02-.471 0-.964-.226-.471-.246-1.271-.82l-.616-.43q-.82-.533-2.091-1.395a104 104 0 0 0-2.215-1.477q-.964-.656-.964-1.23 0-.308.246-.615.246-.328.759-.82l.39-.37a529 529 0 0 0 3.076-2.912q2.152-2.03 2.235-2.256v-.143a.3.3 0 0 0-.102-.226.22.22 0 0 0-.165-.061.7.7 0 0 0-.225.04q-.144.042-8.1 5.353-1.19.759-1.97.759-.861 0-3.096-.718a4 4 0 0 0-.533-.164q-.882-.287-1.23-.492-.33-.205-.329-.533v-.082q.062-.246.43-.513.37-.287 1.006-.533"/></svg>
